!!!!SEGMENT: pl-wtm--iii-41-976--001-003_kurpinski-karol-kazimierz--wesele-w-ojcowie-krakowiak.krn
!!!cenid: 18xx:4255
!!!COM: Kurpiński, Karol Kazimierz
!!!COM-rismID: pe30018952
!!!CDT: 1785/03/06-1857/09/18
!!!CNT: Polish
!!!GTL: Wesele w Ojcowie
!!!OTL: Krakowiak
!!!OMV: 003
!!!PDT:
!!!AGN:
!!!SMS-siglum: PL-Wtm
!!!SMS-shelfmark: III.41.976
!!!SMS-shelfwork: 001-003 G
!!!SMS-variant:
!!!SMS-altvar:
!!!NIFC-rismSourceID: 1001130735
!!!NIFC-rismChildID: 1001130735
!!!NIFC-islandoraID: pl-wtm:23143
!!!URL-pdf-islandora: https://repozytorium.nifc.pl/islandora/object/pl-wtm:23143/datastream/PDF/view
!!!URL-scan: https://polish.musicsources.pl/pl/lokalizacje/galeria/druki-muzyczne/17811/5 @EN{Scan on Polish Music Sources Website} @PL{Skany w portalu Dziedzictwo Muzyki Polskiej w otwartym dostępie}
!!!IIIF:
!!!ONB-nifc: UWAGA: skan 5
!!!AIN: 2 piano
!!!key: B-
**kern	**kern	**dynam
*part2	*part1	*part1
*staff2	*staff1	*
*I"[FORTEPIAN]	*I"[FORTEPIAN]	*
*I'	*I'	*
*Ipiano	*Ipiano	*
*ICklav	*ICklav	*
*clefF4	*clefG2	*
*k[b-e-]	*k[b-e-]	*
*B-:	*B-:	*
*M2/4	*M2/4	*
*>[A,A,B]	*>[A,A,B]	*
=1	=1	=1
*>A	*>A	*>A
!	!	!LO:DY:b:rj
4BB- 4BBB-/	(8.ddL 8.b- 8.f^\	f
.	16ee-Jk 16cc\)	.
8B-L 8F 8BB-\	8ffL 8dd'\	.
8B-J 8F 8BB-\	8ffJ 8dd'\	.
=2	=2	=2
4B- 4F 4BB-\	(16ffLL 16dd\	.
.	16gg 16ee-\	.
.	16ff 16dd\	.
.	16ee-JJ 16cc\)	.
8B-L 8F 8BB-\	8ddL 8b-'\	.
8B-J 8F 8BB-\	8ddJ 8b-'\	.
=3	=3	=3
4BB- 4BBB-/	(8.ddL 8.b-^\	.
.	16ee-Jk 16cc\)	.
8B-L 8F 8BB-\	8ffL 8dd'\	.
8B-J 8F 8BB-\	8ffJ 8dd'\	.
=4	=4	=4
4B- 4F 4BB-\	(8.ffL 8.dd\	.
.	16ee-Jk 16cc\)	.
4B- 4F 4BB-\	4dd 4b-\	.
!!LO:LB:g=original
=5	=5	=5
4BB- 4BBB-/	(8.ddL 8.b-^\	.
.	16ee-Jk 16cc\)	.
8B-L 8F 8BB-\	8ffL 8dd'\	.
8B-J 8F 8BB-\	8ffJ 8dd'\	.
=6	=6	=6
4B- 4F 4BB-\	(16ffLL 16dd\	.
.	16gg 16ee-\	.
.	16ff 16dd\	.
.	16ee-JJ 16cc\)	.
8B-L 8F 8BB-\	8ddL 8b-'\	.
8B-J 8F 8BB-\	8ddJ 8b-'\	.
=7	=7	=7
8BB-L 8BBB-/	(8ddL 8b-\	.
8DJ 8DD/	8ff 8b-\	.
8F 8FF/	8ee- 8a\	.
8r	8ccJ 8e-\)	.
=8	=8	=8
4F 4BB-\	(8ccL 8e-/	.
.	8b-J 8d/)	.
4B- 4F 4BB-\	4b- 4d/	.
=9:|!	=9:|!	=9:|!
*>B	*>B	*>B
8FL 8BB-'\	8bb-` 8dd\	.
8B- 8BB-'\	4bb- 4dd^^\	.
8F 8BB-'\	.	.
8B-'\J	8ccc\	.
!!LO:LB:g=original
=10	=10	=10
8FL 8BB-'\	(16ddd\LL	.
.	16ccc\	.
8B-'\	16bb-\	.
.	16aa\JJ	.
8F 8BB-'\	16gg\LL	.
.	16ff\	.
8B-'\J	16ee-\	.
.	16dd\JJ)	.
=11	=11	=11
8FL 8BB-'\	8bb-` 8dd\	.
8B-'\	4bb- 4dd^^\	.
8F 8BB-'\	.	.
8B-'\J	8ccc\	.
=12	=12	=12
8FL 8BB-'\	(16dd\LL	.
.	16ff\	.
8B-'\	16bb-\	.
.	16ddd\JJ)	.
8F 8BB-'\	4bb-^^\	.
8B-'\J	.	.
=13	=13	=13
8FL 8BB-'\	8bb-` 8dd\	.
8B-'\	4bb- 4dd^^\	.
8F 8BB-'\	.	.
8B-'\J	8ccc\	.
=14	=14	=14
8FL 8BB-'\	(16ddd\LL	.
.	16ccc\	.
8B-'\	16bb-\	.
.	16aa\JJ	.
8F 8BB-'\	16gg\LL	.
.	16ff\	.
8B-'\J	16ee-\	.
.	16dd\JJ)	.
!!LO:LB:g=original
=15	=15	=15
8FL 8BB-\	8bb-L 8dd^\	.
8DJ 8DD\	8bb-J 8gg^\	.
.	(<8qddd/	.
8FL 8FF\	(16ccc\LL)	.
.	16bbn\	.
8e-J 8A 8F\	16ccc\	.
.	16aa\JJ)	.
=16	=16	=16
8dL 8B-\	8bb-X\L	.
8B-J 8BB-\	8dddJ 8ff\	.
4B- 4BB-\	4bb- 4dd\	.
=17||	=17||	=17||
.	(8qddd/	p
8fL 8c 8A 8F'\	(8ccc\L)	.
8f 8c 8A 8F'\	8bbn\)	.
8f 8c 8A 8F'\	8ccc'\	.
8fJ 8c 8A 8F'\	8aa'\J	.
=18	=18	=18
8fL 8c 8A 8F'\	(8ff\L	.
8f 8c 8A 8F'\	8aa\)	.
.	(<8qaa/	.
8en 8c 8B- 8F'\	8gg'\)	.
8fJ 8c 8A 8F'\	8ff'\J	.
=19	=19	=19
8fL 8c 8A 8F'\	(16ccc\LL	.
.	16bbn\	.
8f 8c 8A 8F'\	16ccc\	.
.	16ddd\JJ)	.
8f 8c 8A 8F'\	8ccc'\L	.
8fJ 8c 8A 8F'\	8aa'\J	.
!!LO:LB:g=original
=20	=20	=20
8fL 8c 8A 8F\	(8ff\L	.
8f 8c 8A 8F\	8aa\)	.
.	(<8qaa/	.
8en 8c 8B- 8F\	8gg'\)	.
8fJ 8c 8A 8F\	8ff'\J	.
=21	=21	=21
8FL 8BB-'\	8bb-` 8dd\	.
8B-'\	4bb- 4dd\	.
8F 8BB-'\	.	.
8B-'\J	8ccc\	.
=22	=22	=22
8FL 8BB-'\	(16ddd\LL	.
.	16ccc\	.
8B-'\	16bb-\	.
.	16aa\JJ	.
8F 8BB-'\	16gg\LL	.
.	16ff\	.
8B-'\J	16ee-\	.
.	16dd\JJ)	.
=23	=23	=23
8FL 8BB-\	8bb-L 8dd\	.
8DJ 8DD\	8bb-J 8ff\	.
.	(<8qddd/	.
8FL 8FF\	(16cccLL 16ff\)	.
.	16bbn\	.
8e-J 8A 8F\	16ccc\	.
.	16aa\JJ)	.
=24	=24	=24
4d 4B-\	4bb-\	.
4B- 4BB-\	4bb- 4ff 4dd 4b-\	.
==	==	==
*-	*-	*-
!!!system-decoration: {(s1,s2)}
!!!RDF**kern: > = above
!!!RDF**kern: < = below
!!!RDF**dynam: > = "dim.", fontstyle= "italic"
!!!ENC: Berenika Jozajtis
!!!END: 2022-11-25
!!!ENC: Katarzyna Serwa
!!!END: 2022-12-05
!!!YEC: Copyright 2022 Narodowy Instytut Fryderyka Chopina (https://polishscores.org)
!!!YEM: License CC-BY-4.0 (https://creativecommons.org/licenses/by/4.0)
